X: 14
T:The Friendly Visit
% Nottingham Music Database
S:FTB1 p5
M:4/4
L:1/8
R:Hornpipe
K:G
P:A
BA|"G"(3GFGDG BGBd|"C"(3cBcAB "D7"cdef|"G"g2df "C"ecAG|"Am"FGAB "D7"cAFD|
"G"(3GFGDG BGBd|"C"(3cBcAB "D7"cdef|"G"gdBG "D7"FAdc|"G"B2G2 G2:|
P:B
(3GBd|"G"g2dB GBdg|"Am"e2cA FGAg|"D"f2ed "A7"^cdeg|"D7"(3fgf(3efe dcBA|
"G"(3GFGDG BGBd|"C"(3cBcAB "D7"cdef|"G"gdBG "D7"FAdc|"G"B2G2 G2:|<end>
<start>
